X:1
T:title
M:4/4
Q:120
L:1/8
R:Reel
K:C
 ^g'3 _b4 _f' | D ^c3 ^a' _G3 |  ^c'2 _Gd'3F _f' |  _b4 _E2E _c |  _e'f'a' ^d ^E3 _e' |  _d4C4 | c2 ^c'4 ^e ^f | b'4 ^C3G | 